X:1386
T:Morning raga
C:anon.
O:India
Z:Transcribed by Frank Nordberg - http://www.musicaviva.com
F:http://abc.musicaviva.com/tunes/india/morning-raga.abc
P:AABACCDACCDA
M:3/4
L:1/8
Q:1/4=112
K:Am -8va
P:A
Bc~d2cB|cA B^G A2|BB c~d2d|e2~f2e2||
P:B
ee aa ee|ff dd ee|cc dd ed|cB AB ^GA||
P:C
dd~e2ef|f~^g2ga2-|aa2b a^g|a^g fg e2||
P:D
ec' c'b2b|bc' b~a2a|\
M:3/2
L:1/8
a~b2a ^g~a2g f~g2f|e/e/b/b/ .a2 d/d/f/f/ .e2 B/B/d/d/ .c2||
W:
W:Part order: AABACCDACCDA
W:
W:
W:  From Musica Viva - http://www.musicaviva.com
W:  the Internet center for free sheet music downloads.
